X:1
T:Title
%%score { ( 1 2 ) | ( 3 4 ) }
L:1/8
Q:1/4=100
M:4/4
K:Ab
V:1 treble nm="Grand Piano"
V:2 treble 
V:3 bass 
V:4 bass 
V:1
 A3 A GFAF | G2 G2 G4 | B3 =A cB G>E | [CA]2 [CA]4 z2 | A3 A GFAF | G2 G2 G4 | d3 F G c2 B | %7
w: Geo.~C.~Stebbins * * * * *|||||||
 [CA]6 z2 | [Ge]3 [Fd] FG c>B | E2 A4 z2 | d3 c [FB]F[=DG][DA] | B6 z2 | c3 B [CA][Ec] [_Ge]>[Af] | %13
w: ||||||
 [_Ge]2 [Fd]4 z2 | %14
w: |
 [Fd][B,F].[_CFG].[C=EA] [_Ec]3 [DB][Q:1/4=99][Q:1/4=97][Q:1/4=96][Q:1/4=94][Q:1/4=93][Q:1/4=91][Q:1/4=90][Q:1/4=88][Q:1/4=87][Q:1/4=85][Q:1/4=84][Q:1/4=82][Q:1/4=81][Q:1/4=79][Q:1/4=78][Q:1/4=76] | %15
w: |
 [CA]6 z2 |] %16
w: |
V:2
 C8 | D8 | x8 | x8 | C8 | D8 | x8 | x8 | x8 | x8 | x8 | x8 | x8 | x8 | z4 .=C2 z2 | x8 |] %16
V:3
 [A,,E,]8 | [B,,E,]2 [B,,E,]2 [B,,E,]4 | [E,G,D]3 [E,G,C] [E,G,E][E,G,D] [E,B,D]>[E,G,D] | %3
 [A,,A,]2 [A,,A,]4 z2 | [A,,E,]8 | [B,,E,]2 [B,,E,]2 [B,,E,]4 | %6
 [E,G,F]3 [E,A,D] [E,B,D] [E,A,E]2 [E,G,E] | [A,,A,]6 z2 | %8
 [E,B,]3 [E,G,] [E,A,D][E,B,E] [E,A,E]>[E,G,D] | [A,C]2 [A,C]4 z2 | %10
 [F,A,D]3 [E,A,E] [=D,A,][D,B,][B,,B,][B,,A,] | [E,G,E]6 z2 | %12
 [A,E]3 [E,G,D] [A,,A,][A,,A,] [C,A,]>[C,A,] | [D,A,]2 [D,A,]4 z2 | [D,A,]D,.=D,.D, z A,G,[E,G,] | %15
 [A,,A,]6 z2 |] %16
V:4
 x8 | x8 | x8 | x8 | x8 | x8 | x8 | x8 | x8 | x8 | x8 | x8 | x8 | x8 | z4 E,4 | x8 |] %16

